build/Karasa-Jaga/scalable/actions/system-shutdown-symbolic.svg

<svg height="16" width="16" xmlns="http://www.w3.org/2000/svg"><path d="m8 .43164062c-4.1800625.00051976-7.56783962 3.38829688-7.56835938 7.56835938.0005197 4.180063 3.38829688 7.567839 7.56835938 7.568359 4.180063-.00052 7.567839-3.388296 7.568359-7.568359-.00052-4.1800625-3.388296-7.56783969-7.568359-7.56835938zm-.015625 1.46093748a.79401575.79401575 0 0 1 .0117188 0 .79401575.79401575 0 0 1 .796875.8125v3.96875a.79401575.79401575 0 1 1 -1.5878907 0v-3.96875a.79401575.79401575 0 0 1 .6210938-.7949219.79401575.79401575 0 0 1 .1582031-.0175781zm-3.5683594 2.1191407 1.0996094 1.1542968c-.3751587.3046652-.6957142.677188-.9394531 1.0957032l-.0214844.0214843c-1.088328 1.8986988-.4465902 4.2968989 1.4472656 5.4003909 1.9021127 1.108256 4.3138569.478682 5.4218749-1.423828.964474-1.6560403.610061-3.6974352-.751953-4.9296879l1.15625-1.109375c1.827355 1.7357989 2.29699 4.5804039.976563 6.8476559-1.53984 2.644125-4.9678222 3.538284-7.6113286 1.998047s-3.5379658-4.9691553-1.9980469-7.613281c.3219174-.5527623.7348855-1.0364511 1.2207031-1.4414062z" fill="#bebebe"/></svg>

<?xml version="1.0" encoding="UTF-8" standalone="no"?>
<!-- Created with Inkscape (http://www.inkscape.org/) -->

<svg
   xmlns:dc="http://purl.org/dc/elements/1.1/"
   xmlns:cc="http://creativecommons.org/ns#"
   xmlns:rdf="http://www.w3.org/1999/02/22-rdf-syntax-ns#"
   xmlns:svg="http://www.w3.org/2000/svg"
   xmlns="http://www.w3.org/2000/svg"
   xmlns:sodipodi="http://sodipodi.sourceforge.net/DTD/sodipodi-0.dtd"
   xmlns:inkscape="http://www.inkscape.org/namespaces/inkscape"
   id="svg7384"
   height="16"
   width="16"
   version="1.1"
   sodipodi:docname="system-shutdown-symbolic.svg"
   inkscape:version="0.92.2 (unknown)">
  <defs
     id="defs9" />
  <sodipodi:namedview
     pagecolor="#ffffff"
     bordercolor="#666666"
     borderopacity="1"
     objecttolerance="10"
     gridtolerance="10"
     guidetolerance="10"
     inkscape:pageopacity="0"
     inkscape:pageshadow="2"
     inkscape:window-width="1366"
     inkscape:window-height="716"
     id="namedview7"
     showgrid="false"
     inkscape:snap-global="false"
     inkscape:zoom="5.2149125"
     inkscape:cx="35.339087"
     inkscape:cy="6.1418079"
     inkscape:window-x="0"
     inkscape:window-y="27"
     inkscape:window-maximized="1"
     inkscape:current-layer="svg7384" />
  <metadata
     id="metadata90">
    <rdf:RDF>
      <cc:Work
         rdf:about="">
        <dc:format>image/svg+xml</dc:format>
        <dc:type
           rdf:resource="http://purl.org/dc/dcmitype/StillImage" />
        <dc:title>Gnome Symbolic Icon Theme</dc:title>
      </cc:Work>
    </rdf:RDF>
  </metadata>
  <title
     id="title9167">Gnome Symbolic Icon Theme</title>
  <path
     style="opacity:1;fill:#bebebe;fill-opacity:1;stroke:none;stroke-width:1.28342021"
     d="M 8 0.43164062 C 3.8199375 0.43216038 0.43216038 3.8199375 0.43164062 8 C 0.43216032 12.180063 3.8199375 15.567839 8 15.568359 C 12.180063 15.567839 15.567839 12.180063 15.568359 8 C 15.567839 3.8199375 12.180063 0.43216031 8 0.43164062 z M 7.984375 1.8925781 A 0.79401575 0.79401575 0 0 1 7.9960938 1.8925781 A 0.79401575 0.79401575 0 0 1 8.7929688 2.7050781 L 8.7929688 6.6738281 A 0.79401575 0.79401575 0 1 1 7.2050781 6.6738281 L 7.2050781 2.7050781 A 0.79401575 0.79401575 0 0 1 7.8261719 1.9101562 A 0.79401575 0.79401575 0 0 1 7.984375 1.8925781 z M 4.4160156 4.0117188 L 5.515625 5.1660156 C 5.1404663 5.4706808 4.8199108 5.8432036 4.5761719 6.2617188 L 4.5546875 6.2832031 C 3.4663595 8.1819019 4.1080973 10.580102 6.0019531 11.683594 C 7.9040658 12.79185 10.31581 12.162276 11.423828 10.259766 C 12.388302 8.6037257 12.033889 6.5623308 10.671875 5.3300781 L 11.828125 4.2207031 C 13.65548 5.956502 14.125115 8.801107 12.804688 11.068359 C 11.264848 13.712484 7.8368658 14.606643 5.1933594 13.066406 C 2.549853 11.526169 1.6553936 8.0972507 3.1953125 5.453125 C 3.5172299 4.9003627 3.930198 4.4166739 4.4160156 4.0117188 z "
     id="path831" />
</svg>
